icons-dark/apps/48/blender.svg

<?xml version="1.0" encoding="UTF-8" standalone="no"?>
<svg
   xmlns:dc="http://purl.org/dc/elements/1.1/"
   xmlns:cc="http://creativecommons.org/ns#"
   xmlns:rdf="http://www.w3.org/1999/02/22-rdf-syntax-ns#"
   xmlns:svg="http://www.w3.org/2000/svg"
   xmlns="http://www.w3.org/2000/svg"
   xmlns:xlink="http://www.w3.org/1999/xlink"
   id="svg2"
   height="48"
   width="48"
   version="1.1">
  <metadata
     id="metadata54">
    <rdf:RDF>
      <cc:Work
         rdf:about="">
        <dc:format>image/svg+xml</dc:format>
        <dc:type
           rdf:resource="http://purl.org/dc/dcmitype/StillImage" />
        <dc:title></dc:title>
      </cc:Work>
    </rdf:RDF>
  </metadata>
  <defs
     id="defs4">
    <linearGradient
       id="c">
      <stop
         id="stop7"
         offset="0"
         stop-color="#a3582d" />
      <stop
         id="stop9"
         offset="1"
         stop-color="#ba6d42" />
    </linearGradient>
    <linearGradient
       id="d"
       y1="49.75"
       x1="39.75"
       y2="11.25"
       x2="13.888"
       gradientUnits="userSpaceOnUse"
       gradientTransform="matrix(0.86658412,0,0,0.87069418,7.6008901,1.5267575)"
       xlink:href="#a">
      <stop
         id="stop12"
         stop-color="#d6602e"
         offset="0" />
      <stop
         id="stop14"
         offset="1"
         stop-color="#fd8f49" />
    </linearGradient>
    <linearGradient
       id="b"
       y1="531.77"
       x1="414.63"
       y2="523.38"
       x2="409.79"
       gradientUnits="userSpaceOnUse"
       gradientTransform="matrix(-1.45663 0 0 -1.45663 1013.146 1296.346)">
      <stop
         id="stop17"
         stop-color="#197cf1" />
      <stop
         id="stop19"
         offset="1"
         stop-color="#21c9fb" />
    </linearGradient>
    <linearGradient
       id="g"
       y1="537.26"
       x1="413.5"
       y2="519.75"
       x2="405.4"
       gradientUnits="userSpaceOnUse"
       gradientTransform="translate(2,0)">
      <stop
         id="stop22"
         stop-color="#eef1f2" />
      <stop
         id="stop24"
         offset="1"
         stop-color="#f9fafb" />
    </linearGradient>
    <linearGradient
       x1="412.86"
       xlink:href="#b"
       id="f"
       y1="528.745"
       y2="544.995"
       x2="413.485"
       gradientUnits="userSpaceOnUse"
       gradientTransform="scale(.8712) rotate(-45 -376.617 734.99)">
      <stop
         id="stop27"
         stop-color="#292929" />
      <stop
         id="stop29"
         offset="1"
         stop-opacity="0" />
    </linearGradient>
    <linearGradient
       gradientUnits="userSpaceOnUse"
       y2="12.5"
       x2="16"
       y1="46.75"
       x1="41"
       id="e"
       xlink:href="#c" />
    <linearGradient
       y2="523.38"
       x2="409.79"
       y1="531.77"
       x1="414.63"
       gradientTransform="matrix(-1.1784443,0,0,-1.246848,516.19652,684.37009)"
       gradientUnits="userSpaceOnUse"
       id="h"
       xlink:href="#b" />
  </defs>
  <g
     id="g38"
     transform="matrix(0.9947017,0,0,0.9994194,0.12492698,0.01187751)"
     style="stroke-width:2;stroke-linejoin:round">
    <path
       id="path40"
       transform="matrix(1.0053265,0,0,1.0005809,-0.12559241,-0.01188441)"
       d="M 24.882812 6.0078125 C 23.163904 6.1281797 21.703629 7.676735 22.84375 8.9667969 C 23.283645 9.4645466 27.321513 12.650241 29 14 L 11 14 C 8.1455239 13.996517 6.485634 18.100496 11 18 L 19.539062 18.115234 L 3.8691406 30.267578 C -0.44269599 33.611079 3.5769097 37.699046 7.1503906 34.716797 L 15.525391 27.726562 C 15.432683 29.504067 16.023899 32.343127 17.0625 34.169922 C 19.500253 38.374582 23.837852 42.013796 31.130859 41.978516 C 39.32878 41.938899 46.402989 35.323234 45.980469 26.845703 C 45.847101 23.497971 43.493649 19.252026 38.8125 15.607422 C 35.369778 12.927025 27.116192 6.7472241 26.601562 6.4257812 C 26.057361 6.0858688 25.455782 5.9676901 24.882812 6.0078125 z "
       style="fill:url(#d)" />
    <path
       id="path42"
       transform="matrix(0.8712,0,0,0.8712,5.77,1.51)"
       d="m 19.197266,6.9785156 c -0.152867,0.5047853 -0.06393,1.0522972 0.392578,1.5664063 0.436641,0.4917356 4.951575,4.0824041 7.107673,5.7873191 l 1.153956,0 C 25.914573,12.781984 20.097464,8.2396387 19.589844,7.6679688 19.390161,7.4430913 19.268223,7.2103268 19.197266,6.9785156 Z M 2.6972656,16.552734 c -0.2740475,1.268941 0.5973543,2.431851 3.2290422,2.373543 l 9.8478552,0.124503 1.691705,-1.273012 -11.5395602,0 C 3.914974,17.822335 2.907903,17.46602 2.6972656,16.552734 Z m 8.6289064,12.582032 -9.8457032,8.105468 c -2.6754196,2.222233 -5.5502054,1.020264 -5.8925782,-1.142578 -0.4084188,2.677649 2.8718882,4.530502 5.8925782,2.021485 l 9.6660162,-8.029298 c 0.06695,-0.466315 0.148419,-0.818671 0.179687,-0.955077 z m 34.982422,0.523437 c -0.251656,8.838212 -8.063396,15.643589 -17.464844,15.689453 -8.922361,0.04353 -14.295748,-5.244243 -16.592309,-10.373264 -0.574124,-1.288923 -0.857829,-2.550227 -1.094919,-3.815346 0.10326,2.53768 1.056307,5.265238 2.22625,7.160217 2.708278,4.315907 7.958139,8.207573 15.460978,8.170971 9.710496,-0.04737 17.725342,-7.589108 17.464844,-16.832031 z"
       style="opacity:0.5;fill:url(#e)" />
  </g>
  <path
     id="path44"
     d="m 37.070849,20.433824 -13.01586,12.278638 8.529688,8.250909 C 39.966866,40.019812 45.337652,35.09174 46.034589,28.50434 l -8.927786,-8.088493"
     style="opacity:0.2;fill:url(#f)" />
  <g
     id="g46"
     transform="matrix(0.9734707,0,0,1.029509,0.90266642,-0.43753635)"
     style="stroke-width:2;stroke-linecap:round;stroke-linejoin:round">
    <path
       id="path48"
       d="m 424.0378,528.3668 c 0.0943,2.68783 -0.95509,5.30443 -2.9369,7.25483 -2.00549,1.97372 -4.77925,3.08251 -7.68971,3.064 -2.90717,-0.0185 -5.67202,-1.16003 -7.66773,-3.15239 -1.96909,-1.96579 -3.01104,-4.58273 -2.91834,-7.25858 0.0911,-2.62957 1.27143,-5.10542 3.26479,-6.90221 1.97096,-1.77659 4.59636,-2.76219 7.31814,-2.7555 2.72467,0.007 5.35865,1.00726 7.33992,2.79941 2.00689,1.81534 3.19715,4.30929 3.28983,6.95044 0,0 0,0 0,0"
       transform="matrix(0.8712,0,0,0.8712,-329.264,-433.91)"
       style="fill:url(#g)" />
    <path
       id="path50"
       transform="matrix(1.0272523,0,0,0.97133682,-0.92726614,0.42499517)"
       d="M 30.996094 22 C 29.687663 21.99506 28.428302 22.504088 27.494141 23.417969 C 26.555684 24.336059 26.01724 25.590104 26 26.910156 C 25.982688 28.23947 26.495608 29.527396 27.429688 30.484375 C 28.368727 31.446455 29.652724 31.993102 30.996094 32 C 32.340073 32.007301 33.625716 31.474637 34.566406 30.521484 C 35.502694 29.572774 36.017805 28.288706 36 26.957031 C 35.982355 25.634643 35.441198 24.372307 34.5 23.445312 C 33.563703 22.523139 32.305097 22.005148 30.996094 22 z "
       style="fill:url(#h)" />
  </g>
</svg>

<svg height="48" width="48" xmlns="http://www.w3.org/2000/svg"><linearGradient id="c" gradientUnits="userSpaceOnUse" x1="31" x2="41" y1="27" y2="37"><stop offset="0" stop-color="#292929"/><stop offset="1" stop-opacity="0"/></linearGradient><linearGradient id="a" gradientTransform="matrix(.86658 0 0 .8707 7.6 1.527)" gradientUnits="userSpaceOnUse" x1="39.75" x2="13.888" y1="49.75" y2="11.25"><stop offset="0" stop-color="#d6602e"/><stop offset="1" stop-color="#fd8f49"/></linearGradient><linearGradient id="d" gradientUnits="userSpaceOnUse" x1="415.5" x2="407.4" y1="537.26" y2="519.75"><stop offset="0" stop-color="#eef1f2"/><stop offset="1" stop-color="#f9fafb"/></linearGradient><linearGradient id="b" gradientUnits="userSpaceOnUse" x1="41" x2="16" y1="46.75" y2="12.5"><stop offset="0" stop-color="#a3582d"/><stop offset="1" stop-color="#ba6d42"/></linearGradient><linearGradient id="e" gradientTransform="matrix(-1.17844 0 0 -1.24685 516.197 684.37)" gradientUnits="userSpaceOnUse" x1="414.63" x2="409.79" y1="531.77" y2="523.38"><stop offset="0" stop-color="#197cf1"/><stop offset="1" stop-color="#21c9fb"/></linearGradient><g stroke-linejoin="round" stroke-width="2"><path d="M24.883 6.008c-1.72.12-3.18 1.669-2.04 2.959.44.498 4.479 3.683 6.157 5.033H11c-2.854-.003-4.514 4.1 0 4l8.54.115L3.87 30.268c-4.313 3.343-.293 7.431 3.28 4.449l8.375-6.99c-.092 1.777.499 4.616 1.538 6.443 2.437 4.205 6.775 7.844 14.068 7.809 8.198-.04 15.272-6.656 14.85-15.133-.134-3.348-2.487-7.594-7.169-11.239-3.442-2.68-11.696-8.86-12.21-9.181a2.842 2.842 0 0 0-1.72-.418z" fill="url(#a)"/><path d="M19.197 6.979c-.153.504-.064 1.052.393 1.566.436.492 4.951 4.082 7.108 5.787h1.153c-1.936-1.55-7.754-6.092-8.261-6.664a1.836 1.836 0 0 1-.393-.69zm-16.5 9.574c-.274 1.269.598 2.432 3.23 2.373l9.847.125 1.692-1.273H5.926c-2.011.044-3.018-.312-3.229-1.225zm8.63 12.582L1.48 37.24c-2.675 2.222-5.55 1.02-5.892-1.142-.409 2.677 2.872 4.53 5.892 2.021l9.666-8.03c.067-.465.149-.818.18-.954zm34.982.523c-.252 8.838-8.064 15.644-17.465 15.69-8.923.043-14.296-5.245-16.593-10.374-.574-1.289-.857-2.55-1.094-3.815.103 2.538 1.056 5.265 2.226 7.16 2.708 4.316 7.958 8.208 15.46 8.171 9.711-.047 17.726-7.589 17.466-16.832z" fill="url(#b)" opacity=".5" transform="matrix(.86658 0 0 .8707 5.864 1.521)"/></g><path d="M37.352 20.648L24.654 33.346l8.477 8.476c6.56-.9 11.986-5.984 12.756-12.638z" fill="url(#c)" opacity=".2"/><g stroke-linecap="round" stroke-linejoin="round" stroke-width="2"><path d="M424.038 528.367c.094 2.688-.955 5.304-2.937 7.255-2.006 1.973-4.78 3.082-7.69 3.064-2.907-.019-5.672-1.16-7.668-3.153-1.969-1.966-3.01-4.582-2.918-7.258.091-2.63 1.272-5.106 3.265-6.903 1.97-1.776 4.596-2.762 7.318-2.755 2.725.007 5.359 1.007 7.34 2.8 2.007 1.815 3.197 4.309 3.29 6.95z" fill="url(#d)" transform="matrix(.84809 0 0 .8969 -319.626 -447.152)"/><path d="M30.996 22A4.973 4.973 0 0 0 26 26.91 5.027 5.027 0 0 0 30.996 32 4.974 4.974 0 0 0 36 26.957 5.027 5.027 0 0 0 30.996 22z" fill="url(#e)"/></g></svg>
